assets/moneyicon.svg

<svg width="34" height="34" viewBox="0 0 34 34" fill="none" xmlns="http://www.w3.org/2000/svg">
<path d="M17 33C25.8366 33 33 25.8366 33 17C33 8.16344 25.8366 1 17 1C8.16344 1 1 8.16344 1 17C1 25.8366 8.16344 33 17 33Z" stroke="#376FE3" stroke-width="1.2" stroke-linecap="round" stroke-linejoin="round"/>
<path d="M20.3195 13C19.8822 12.1466 19.0608 11.6329 18.1862 11.6666H15.8146C14.5062 11.6666 13.4448 12.8578 13.4448 14.3333C13.4448 15.8035 14.5062 16.9982 15.8146 16.9982H18.1862C19.4946 16.9982 20.5559 18.1911 20.5559 19.6649C20.5559 21.1369 19.4946 22.3298 18.1862 22.3298H15.8146C14.9399 22.3635 14.1186 21.8498 13.6813 20.9964M17.0004 8.11108V11.6666M17.0004 22.3333V25.8889" stroke="#376FE3" stroke-width="1.2" stroke-linecap="round" stroke-linejoin="round"/>
</svg>

<svg width="34" height="34" fill="none" xmlns="http://www.w3.org/2000/svg"><path d="M17 33c8.837 0 16-7.163 16-16S25.837 1 17 1 1 8.163 1 17s7.163 16 16 16z" stroke="#376FE3" stroke-width="1.2" stroke-linecap="round" stroke-linejoin="round"/><path d="M20.32 13c-.438-.853-1.26-1.367-2.134-1.333h-2.371c-1.309 0-2.37 1.19-2.37 2.666 0 1.47 1.061 2.665 2.37 2.665h2.371c1.309 0 2.37 1.193 2.37 2.667 0 1.472-1.061 2.665-2.37 2.665h-2.371c-.875.034-1.696-.48-2.134-1.334m3.32-12.885v3.556m0 10.666v3.556" stroke="#376FE3" stroke-width="1.2" stroke-linecap="round" stroke-linejoin="round"/></svg>
